X: 3
T:Robin Hood
M:6/4
L:1/4
S:Cam Univ MS early 17th C
K:GAeolian
G>AB A>Bc|B>AG^F2D|G>ABc2A|B2c d3|d2Bc2A|B>AG^F2B|A2G ^F>GA|G6||
